X: 390
T: Barham Downs
%R: reel
Z: 2014 John Chambers <jc:trillian.mit.edu>
B: Preston "Twenty four Country Dances for the Year 1800" p.175 #2
F: http://www.vwml.org/browse/browse-collections-dance-tune-books/browse-prestons1800# 2014-8-10
M: C|
L: 1/8
K: A
d |\
cAec dBfd | cAce a2ed |\
cAec dBfd | cA A/A/A f2e :|
|: g |\
a/g/f/e/ ac dBBg | aeag f2eg |\
aefd ecac | B/B/B de f2e :|
% - - - - - - - - - - - - - - - - - - - - - - - - -
%%begintext align
%% Cast of 2 Cu: .| up again :| lead down
%% the middle up again and cast of :|. turn
%% opposite corners .|| lead outsides :||
%%endtext
% - - - - - - - - - - - - - - - - - - - - - - - - -

%%sep 1 1 500
%%sep 1 1 500
